icons/feed-star-16.svg

<svg xmlns="http://www.w3.org/2000/svg" width="16" height="16" viewBox="0 0 16 16"><path d="M8 16A8 8 0 118 0a8 8 0 010 16zm.252-12.932a.476.476 0 00-.682.195l-1.2 2.432-2.684.39a.477.477 0 00-.266.816l1.944 1.892-.46 2.674a.479.479 0 00.694.504L8 10.709l2.4 1.261a.478.478 0 00.694-.504l-.458-2.673L12.578 6.9a.479.479 0 00-.265-.815l-2.685-.39-1.2-2.432a.473.473 0 00-.176-.195z"/></svg>

<svg xmlns="http://www.w3.org/2000/svg" width="16" height="16" viewBox="0 0 16 16">
  <defs/>
  <path d="M8,16 C3.582,16 0,12.418 0,8 C0,3.582 3.582,0 8,0 C12.418,0 16,3.582 16,8 C16,12.418 12.418,16 8,16 Z M8.252,3.068 C8.137,2.996 7.998,2.977 7.868,3.014 C7.738,3.051 7.63,3.142 7.57,3.263 L6.37,5.695 L3.686,6.085 C3.505,6.111 3.355,6.237 3.299,6.41 C3.242,6.583 3.289,6.774 3.42,6.901 L5.364,8.793 L4.904,11.467 C4.873,11.646 4.947,11.828 5.094,11.935 C5.242,12.042 5.437,12.056 5.598,11.971 L8,10.709 L10.4,11.97 C10.561,12.055 10.756,12.041 10.904,11.934 C11.051,11.827 11.125,11.645 11.094,11.466 L10.636,8.793 L12.578,6.9 C12.707,6.773 12.754,6.583 12.697,6.411 C12.641,6.238 12.492,6.112 12.313,6.085 L9.628,5.695 L8.428,3.263 C8.389,3.183 8.328,3.115 8.252,3.068 Z"/>
</svg>
